X:0702
T:Red House/Where would Bonnie Annie Lie?
P:Red House
C:17th c., here from Walsh's Country Dances 1731
R:Reel (8x40) ABBCC
B:RSCDS 7-2
Z:Anselm Lingnau <anselm@strathspey.org>
M:C|
L:1/8
K:Gm
"Gm"G2 g4 fe|d4 B4|"F"A2 f4 ed|c2 dc dcBA|\
"Gm"G2 g4 fe|d4 B4|
                   "Cm"cBAG "D7"^FGA2|"Gm"B2 E2 E2 Bc|\
|:"Gm"dcBA GABc|d4 B4|"F"cBAG FGAB|c4 A4|
  "Gm"dcBA GABc|d4 B4|"Cm"cBAG "D7"^FGA2|"Gm"B2 G2 G2 Bc:|\
|:"Bb"d2 d2 d2 Bc|"Gm"d2 d2 d2 AB|
                                  "F"c2 c2 c2 AB|c2 c2 c2 Bc|\
  "Bb"d2 d2 "Bb/A"d2 Bc|"Gm"d2 d2 d2 AB|\
        "Cm"cBAG "D7"^FGA2|1 "Gm"B2 G2 G2 Bc:|2 "Gm"B2 G2 G4|]
